X:1
T:Dorset Four Hand Reel
R:polka 32 reel
S:from the playing of Mary Motley
Z:Lewes
M:4/4
L:1/8
Q:1/4=180
K:G
|:GABc d2B2|c2e2 c2e2|GABc d2B2|c2A2 A4|
GABc d2B2|c2e2 c2e2|GABc d2B2|A2G2 G4:|
|:g2g2 gfe2|d2d2 dcB2|A3B c2d2|e2d2 e2f2|
g2g2 gfe2|d2d2 dcB2|A3B c2F2|A2G2 G4:|]
